X:59
T:Mouth of the Tobique
S:Don Messer Anthology + 3rd part
R:reel
M:4/4
L:1/8
K:G
(3DEF|GFGA Bded|BdBG DGBG|AGFE DFAc|BdBG D2 (3DEF|
GFGA  Bded|BdBG DGBG|AGFE DFAc|BGGF G2:|
|: (3def|gfga gfeg|fdAd fagf|ecAG FGAc|BGBc d2(3def|
gfga gfeg|fdAd fagf|ecAG FGAc|BGGF G2:|
|: (3DEF|GGBG GcGG|BGGc GGBG|FGAB cAFD|GABc dDEF|
GGBG GcGG|BGGc GGBG|FGAB cAFD|GBAF G2:|
